!!!OTL: ALS ICH AN EINEM SOMMERTAG
!!!ARE: Europa, Mitteleuropa, Deutschland, Schleswig - Holstein; Nassau
!!!SCT: E0517B
!!!YEM: Copyright 1995, estate of Helmut Schaffrath.
**kern
*ICvox
*Ivox
*M4/4
*k[]
*C:
{8C
8E
=1
4G
4G
4G
4c
=2
4G
8.G
16F
4E}
{8.G
16G
=3
4G
8.F
16E
4F
8.G
16F
=4
2E
4r}
{8C
8E
=5
4G
4G
4G
4c
=6
4G
8.G
16F
4E}
{8.G
16G
=7
4G
8.F
16E
4F
8.G
16F
=8
2E
4r}
{8C
8E
=9
4G
4G
4G
4c
=10
4G
8.G
16F
4E}
{8C
8C
=11
8.A
16A
8.A
16A
8.c
16c
8.B
16A
=12
8.A
16G
8.G
16G
8.c
16c}
{8.c
16c
=13
4d
8.d
16d
4B
8.A
16B
=14
4c
4e
4G}
{8C
8C
=15
8.A
16A
8.A
16A
8.c
16c
8.B
16A
=16
8.A
16G
8.G
16G
8.c
16c}
{8.c
16c
=17
4d
8.d
16d
4B
8.A
16B
=18
2c
4r}
==
!!!AGN: Liebes - Lied
!!!ONB: ESAC (Essen Associative Code) Database: ERK1
!!!AMT: simple quadruple
!!!AIN: vox
!!!EED: Helmut Schaffrath
!!!EEV: 1.0
*-
